svgs/thin/magnifying-glass-plus.svg

<svg xmlns="http://www.w3.org/2000/svg" viewBox="0 0 512 512"><!-- Font Awesome Pro 6.0.0-alpha2 by @fontawesome - https://fontawesome.com License - https://fontawesome.com/license (Commercial License) --><path d="M509.656 498.344L360.465 349.152C394.828 312.055 416 262.555 416 208C416 93.125 322.875 0 208 0S0 93.125 0 208S93.125 416 208 416C262.555 416 312.055 394.828 349.152 360.465L498.344 509.656C499.906 511.219 501.938 512 504 512S508.094 511.219 509.656 509.656C512.781 506.531 512.781 501.469 509.656 498.344ZM208 400C102.133 400 16 313.867 16 208S102.133 16 208 16S400 102.133 400 208S313.867 400 208 400ZM296 200H216V120C216 115.578 212.42 112 208 112S200 115.578 200 120V200H120C115.58 200 112 203.578 112 208S115.578 216 120 216H200V296C200 300.422 203.578 304 208 304C212.42 304 216 300.422 216 296V216H296C300.42 216 304 212.422 304 208S300.42 200 296 200Z"/></svg>

<svg xmlns="http://www.w3.org/2000/svg" viewBox="0 0 512 512"><!--! Font Awesome Pro 6.0.0-alpha3 by @fontawesome - https://fontawesome.com License - https://fontawesome.com/license (Commercial License) --><path d="M509.7 498.3l-149.2-149.2C394.8 312.1 416 262.6 416 208C416 93.13 322.9 0 208 0S0 93.13 0 208S93.13 416 208 416c54.55 0 104.1-21.17 141.2-55.54l149.2 149.2C499.9 511.2 501.9 512 504 512s4.094-.7813 5.656-2.344C512.8 506.5 512.8 501.5 509.7 498.3zM208 400c-105.9 0-192-86.13-192-192s86.13-192 192-192s192 86.13 192 192S313.9 400 208 400zM296 200h-80v-80c0-4.422-3.58-8-8-8S200 115.6 200 120v80h-80C115.6 200 112 203.6 112 208s3.578 8 8 8h80v80c0 4.422 3.578 8 8 8c4.42 0 8-3.578 8-8v-80h80c4.42 0 8-3.578 8-8S300.4 200 296 200z"/></svg>
